X: 0509
T: Lady Susan Stewart's Reel
P: Hold the Lass 'till I Get at Her
C:Caledonian Country Dances c.1754
B:RSCDS 5-9
Z:Anselm Lingnau <anselm@strathspey.org>
R:Reel (8x32)
M:C|
L:1/8
K:G
"Am"A2 eg "D"fd"C"ec|"Am"A2 eg "G"BGdB|"Am"Aeeg "D"fd"C"eg|"D"fe"G"dg BGdB|
"Am"A2 eg "D"fd"C"ec|"Am"A2 eg "G"BGdB|"Am"Aeeg "D"fd"C"eg|"D"fe"G"dg BGdB||
"Am"A2 a2 "D"fd"C"ec|"Am"A2 a2 "G"BGdB|"Am"A2 a2 "D"fd"C"eg|"D"fe"G"dg BGdB||
"Am"A2 a2 "D"fd"C"ec|"Am"A2 a2 "G"BGdB|"Am"A2 a2 "D"fd"C"eg|"D"fe"G"dg BGdB|]
%%center Book05/0509-Lady_Susan_Stewarts_Reel-AL.abc

%%sep 1 1 500
%%sep 1 1 500

